packages/tokens/icons/click/size32Px.svg

<svg viewBox="0 0 32 32" fill="none" xmlns="http://www.w3.org/2000/svg" width="1em" height="1em"><path d="M16.8441 27.599L10.1647 10.4236C10.1017 10.2615 10.2615 10.1017 10.4236 10.1647L27.599 16.8441C27.7575 16.9057 27.7716 17.1246 27.6223 17.206L22.7347 19.872C22.6174 19.9359 22.5946 20.0946 22.689 20.189L27.3586 24.8586C27.4367 24.9367 27.4367 25.0633 27.3586 25.1414L25.1414 27.3586C25.0633 27.4367 24.9367 27.4367 24.8586 27.3586L20.189 22.689C20.0946 22.5946 19.9359 22.6174 19.872 22.7347L17.206 27.6223C17.1246 27.7716 16.9057 27.7575 16.8441 27.599Z" stroke="currentColor"/><path d="M7.5 16.5L5 19" stroke="currentColor" stroke-linecap="round"/><path d="M12 2.5V6" stroke="currentColor" stroke-linecap="round"/><path d="M5 5L7.5 7.5" stroke="currentColor" stroke-linecap="round"/><path d="M2.5 12H6" stroke="currentColor" stroke-linecap="round"/><path d="M16.5 7.5L19 5" stroke="currentColor" stroke-linecap="round"/></svg>

<svg xmlns="http://www.w3.org/2000/svg" fill="none" viewBox="0 0 32 32" width="1em" height="1em"><path stroke="currentColor" d="m16.844 27.599-6.68-17.175a.2.2 0 0 1 .26-.26l17.175 6.68a.2.2 0 0 1 .023.362l-4.887 2.666a.2.2 0 0 0-.046.317l4.67 4.67a.2.2 0 0 1 0 .282L25.14 27.36a.2.2 0 0 1-.282 0l-4.67-4.67a.2.2 0 0 0-.317.046l-2.666 4.887a.2.2 0 0 1-.362-.023Z"/><path stroke="currentColor" stroke-linecap="round" d="M7.5 16.5 5 19m7-16.5V6M5 5l2.5 2.5m-5 4.5H6m10.5-4.5L19 5"/></svg>
